icons/brand/icon_bank-uralskiy_m_color.svg

<svg width="24" height="24" viewBox="0 0 24 24" xmlns="http://www.w3.org/2000/svg">
  <g fill-rule="nonzero" fill="none">
    <path d="M4.07 16.018c-.296-.516-.517-1.106-.517-1.77V7.023c-.96.22-1.696.885-2.138 1.696v4.57c.583 1.16 1.51 2.113 2.654 2.728" fill="#D4132F"/>
    <path d="M4.438 6.138h2.138c.59 0 1.106-.516 1.106-1.106C7.682 4.442 7.166 4 6.576 4H4.438c-.804-.01-1.58.307-2.147.876-.568.568-.884 1.343-.875 2.147v.96C1.93 6.875 3.11 6.137 4.438 6.137" fill="#940449"/>
    <path d="M11 4v10.25c0 1.99-1.696 3.612-3.687 3.612-2.36 0-4.72-1.327-5.9-3.54C1.49 17.42 4.07 20 7.314 20s5.9-2.58 5.9-5.75V6.137L11 4z" fill="#2865A7"/>
    <path d="M16.456 4H11l2.212 2.138h3.54c1.547 0 3.096.664 4.276 1.696C20.585 5.622 18.742 4 16.456 4z" fill="#B10540"/>
    <path d="M20.806 10.267c.22-.59.295-1.327.295-1.696-.663-.59-1.62-1.18-2.653-1.474.295.37.516 1.032.516 1.548s-.147.96-.442 1.475c-.294.44-.294 1.03.222 1.326.96.516 1.622 1.475 1.696 2.507.078.798-.103 1.6-.516 2.286 1.18-.59 2.138-1.55 2.654-2.655-.147-1.18-.664-2.285-1.77-3.318" fill="#D4132F"/>
    <path d="M17.267 17.788h-3.465c-.59 0-1.106.516-1.106 1.106 0 .59.516 1.106 1.106 1.106h3.465c2.95 0 5.456-2.507 5.382-5.604-.738 1.917-2.728 3.392-5.383 3.392" fill="#940449"/>
  </g>
</svg>

<?xml version="1.0" encoding="UTF-8"?>
<svg width="24px" height="24px" viewBox="0 0 24 24" version="1.1" xmlns="http://www.w3.org/2000/svg" xmlns:xlink="http://www.w3.org/1999/xlink">
    <!-- Generator: Sketch 47.1 (45422) - http://www.bohemiancoding.com/sketch -->
    <title>icon_bank-uralskiy_m_color</title>
    <desc>Created with Sketch.</desc>
    <defs></defs>
    <g id="Page-1" stroke="none" stroke-width="1" fill="none" fill-rule="evenodd">
        <g id="icon_bank-uralskiy_m_color">
            <g>
                <rect id="_ph_" opacity="0" x="0" y="0" width="24" height="24"></rect>
                <path d="M4.069,16.018 C3.774,15.502 3.553,14.912 3.553,14.248 L3.553,7.023 C2.594,7.244 1.857,7.908 1.415,8.719 L1.415,13.29 C1.99833784,14.4504396 2.92503729,15.4029777 4.069,16.018" id="Shape" fill="#D4132F" fill-rule="nonzero"></path>
                <path d="M4.438,6.138 L6.576,6.138 C7.166,6.138 7.682,5.622 7.682,5.032 C7.682,4.442 7.166,4 6.576,4 L4.438,4 C3.63354659,3.99107132 2.85943607,4.30669707 2.29056657,4.87556657 C1.72169707,5.44443607 1.40607132,6.21854659 1.415,7.023 L1.415,7.982 C1.931,6.876 3.111,6.138 4.438,6.138" id="Shape" fill="#940449" fill-rule="nonzero"></path>
                <path d="M11,4 L11,14.249 C11,16.24 9.304,17.862 7.313,17.862 C4.954,17.862 2.594,16.535 1.414,14.323 C1.488,17.419 4.069,20 7.313,20 C10.557,20 13.212,17.419 13.212,14.249 L13.212,6.138 L11,4 Z" id="Shape" fill="#2865A7" fill-rule="nonzero"></path>
                <path d="M16.456,4 L11,4 L13.212,6.138 L16.751,6.138 C18.299,6.138 19.848,6.802 21.028,7.834 C20.585,5.622 18.742,4 16.456,4 Z" id="Shape" fill="#B10540" fill-rule="nonzero"></path>
                <path d="M20.806,10.267 C21.027,9.677 21.101,8.94 21.101,8.571 C20.437,7.981 19.479,7.391 18.447,7.096 C18.742,7.465 18.963,8.128 18.963,8.644 C18.963,9.16 18.816,9.603 18.521,10.119 C18.226,10.561 18.226,11.151 18.742,11.446 C19.701,11.962 20.364,12.921 20.438,13.953 C20.5162047,14.750656 20.3352611,15.5522785 19.922,16.239 C21.102,15.649 22.06,14.691 22.576,13.585 C22.429,12.406 21.912,11.3 20.806,10.267" id="Shape" fill="#D4132F" fill-rule="nonzero"></path>
                <path d="M17.267,17.788 L13.802,17.788 C13.212,17.788 12.696,18.304 12.696,18.894 C12.696,19.484 13.212,20 13.802,20 L17.267,20 C20.216,20 22.723,17.493 22.649,14.396 C21.912,16.313 19.922,17.788 17.267,17.788" id="Shape" fill="#940449" fill-rule="nonzero"></path>
            </g>
        </g>
    </g>
</svg>
